build/controls/vbo-light/caption.svg

<svg xmlns="http://www.w3.org/2000/svg" width="1000" height="1000"><path fill="#222" d="M275.36 260.255h439.29c17.322 0 31.381 14.055 31.381 31.378s-14.059 31.376-31.381 31.376h-439.29c-17.333 0-31.377-14.053-31.377-31.376-.001-17.323 14.044-31.378 31.377-31.378z"/><path fill="#222" d="M275.36 448.521h439.29c17.322 0 31.381 14.057 31.381 31.38 0 17.321-14.059 31.376-31.381 31.376h-439.29c-17.333 0-31.377-14.055-31.377-31.376 0-17.323 14.044-31.38 31.377-31.38z"/><path fill="#222" d="M272.098 746.3h251.023l-251.023 251.023v-251.023z"/><path stroke="#222" stroke-width="100" stroke-miterlimit="10" d="M243.805 50.002h517.445c102.073 0 184.802 82.728 184.802 184.802v295.684c0 102.068-82.729 184.8-184.802 184.8h-517.445c-102.065 0-184.802-82.729-184.802-184.8v-295.683c0-102.075 82.737-184.803 184.802-184.803z" fill="none"/></svg>

<?xml version="1.0" encoding="utf-8"?>
<!-- Generator: Adobe Illustrator 16.0.0, SVG Export Plug-In . SVG Version: 6.00 Build 0)  -->
<!DOCTYPE svg PUBLIC "-//W3C//DTD SVG 1.1//EN" "http://www.w3.org/Graphics/SVG/1.1/DTD/svg11.dtd">
<svg version="1.1" id="Calque_1" xmlns="http://www.w3.org/2000/svg" xmlns:xlink="http://www.w3.org/1999/xlink" x="0px" y="0px"
	 width="1000px" height="1000px" viewBox="0 0 1000 1000" enable-background="new 0 0 1000 1000" xml:space="preserve">
<path fill-rule="evenodd" clip-rule="evenodd" fill="#222222" d="M275.36,260.255h439.288c17.324,0,31.381,14.055,31.381,31.378
	c0,17.323-14.057,31.376-31.381,31.376H275.36c-17.333,0-31.377-14.053-31.377-31.376
	C243.982,274.31,258.027,260.255,275.36,260.255z"/>
<path fill-rule="evenodd" clip-rule="evenodd" fill="#222222" d="M275.36,448.521h439.288c17.324,0,31.381,14.057,31.381,31.38
	s-14.057,31.376-31.381,31.376H275.36c-17.333,0-31.377-14.053-31.377-31.376S258.027,448.521,275.36,448.521z"/>
<path fill-rule="evenodd" clip-rule="evenodd" fill="#222222" d="M272.098,746.3h251.023L272.098,997.323V746.3z"/>
<path fill-rule="evenodd" clip-rule="evenodd" fill="none" stroke="#222222" stroke-width="100" stroke-miterlimit="10" d="
	M243.805,50.002H761.25c102.073,0,184.802,82.728,184.802,184.802v295.684c0,102.07-82.729,184.8-184.802,184.8H243.805
	c-102.065,0-184.802-82.729-184.802-184.8V234.805C59.003,132.73,141.74,50.002,243.805,50.002z"/>
</svg>
